assets/icons/qvision/rotate_left.svg

<svg width="24" height="24" viewBox="0 0 24 24" fill="none" xmlns="http://www.w3.org/2000/svg">
<g clip-path="url(#clip0_147_3710)">
<path d="M7.11007 8.53L5.70007 7.11C4.80007 8.27 4.24007 9.61 4.07007 11H6.09007C6.23007 10.13 6.58007 9.28 7.11007 8.53ZM6.09007 13H4.07007C4.24007 14.39 4.79007 15.73 5.69007 16.89L7.10007 15.47C6.58007 14.72 6.23007 13.88 6.09007 13ZM7.10007 18.32C8.26007 19.22 9.61007 19.76 11.0001 19.93V17.9C10.1301 17.75 9.29007 17.41 8.54007 16.87L7.10007 18.32ZM13.0001 4.07V1L8.45007 5.55L13.0001 10V6.09C15.8401 6.57 18.0001 9.03 18.0001 12C18.0001 14.97 15.8401 17.43 13.0001 17.91V19.93C16.9501 19.44 20.0001 16.08 20.0001 12C20.0001 7.92 16.9501 4.56 13.0001 4.07Z" fill="#323232"/>
</g>
<defs>
<clipPath id="clip0_147_3710">
<rect width="24" height="24" fill="white"/>
</clipPath>
</defs>
</svg>

<svg xmlns="http://www.w3.org/2000/svg" height="24" viewBox="0 0 24 24" width="24"><path d="M0 0h24v24H0z" fill="none"/><path d="M7.11 8.53L5.7 7.11C4.8 8.27 4.24 9.61 4.07 11h2.02c.14-.87.49-1.72 1.02-2.47zM6.09 13H4.07c.17 1.39.72 2.73 1.62 3.89l1.41-1.42c-.52-.75-.87-1.59-1.01-2.47zm1.01 5.32c1.16.9 2.51 1.44 3.9 1.61V17.9c-.87-.15-1.71-.49-2.46-1.03L7.1 18.32zM13 4.07V1L8.45 5.55 13 10V6.09c2.84.48 5 2.94 5 5.91s-2.16 5.43-5 5.91v2.02c3.95-.49 7-3.85 7-7.93s-3.05-7.44-7-7.93z"/></svg>
